X: 120787
T: Lass of Ballintrae
S: "Music of Ireland - The Big Session" (DJ Taylor)
Z: B.Black
L: 1/8
M: 4/4
R: reel
K: G
G3 B DGBd|edBG AGED|GFGB DGBd|gaba gedB :|
dg g2 b2 ag|agbg ageg|dg g2 b2 af|gbaf gedB|
dg g2 bg g2|agbg ageg|b2 af gfed|eaaf gedB ||
